apps/128/deepin-launcher.svg

<svg height="128" viewBox="0 0 128 128" width="128" xmlns="http://www.w3.org/2000/svg" xmlns:xlink="http://www.w3.org/1999/xlink"><linearGradient id="a" gradientUnits="userSpaceOnUse" x1="64.42871085545" x2="63.70264686264" y1="9.49702762746" y2="114.03049919903"><stop offset="0" stop-color="#cde2e9"/><stop offset="1" stop-color="#797979"/></linearGradient><linearGradient id="b" gradientUnits="userSpaceOnUse" x1="66.01551341119" x2="64.33359152003" y1="119.34706540717" y2="1.33853303141"><stop offset="0" stop-color="#cccdd1"/><stop offset="1" stop-color="#f7f9f9"/></linearGradient><circle cx="64.333229" cy="64.22612" fill="url(#a)" r="60.565502" stroke="#cccdd1" stroke-width="4.644855"/><path d="m64.333592 1.3385313c-34.704539 0-62.8882778 28.1824517-62.8882778 62.8869837 0 34.704538 28.1837388 62.888275 62.8882778 62.888275 34.704538 0 62.886978-28.183737 62.886978-62.888275 0-34.704532-28.18244-62.8869837-62.886978-62.8869837zm0 4.644855c32.194272 0 58.242128 26.0478627 58.242128 58.2421287 0 32.194272-26.047856 58.243425-58.242128 58.243425-32.194267 0-58.2434228-26.049153-58.2434228-58.243425 0-32.194266 26.0491558-58.2421287 58.2434228-58.2421287z" fill="url(#b)"/><path d="m99.089653 26.738525c-24.284556 1.370593-38.021472 12.862649-49.237651 27.610618-10.986594-.769463-22.221573 3.921185-31.061944 14.49603 8.409478-1.770406 16.132518-1.756653 23.008469.460101l-1.150817 8.397703c3.091738 2.71814 6.181585 5.446883 8.973676 9.663256l8.743059-3.335448c1.241696 8.516845.249608 16.474795-.920202 24.388765 6.797702-8.715716 13.869993-15.241271 14.96749-31.617468 18.048635-14.598552 26.697805-33.58962 26.67792-50.063557zm-23.237954 16.567053a7.822944 7.822944 0 0 1 7.822857 7.822857 7.822944 7.822944 0 0 1 -7.822857 7.822857 7.822944 7.822944 0 0 1 -7.822858-7.822857 7.822944 7.822944 0 0 1 7.822858-7.822857zm-37.504497 39.114285c-13.768272 3.685675-4.331432 10.567785-12.19439 17.486111 7.723848-1.86308 18.022443-2.30135 18.176839-10.583455 0 0-6.748465 3.090536-8.513578.920194-1.765108-2.170324 2.531129-7.82285 2.531129-7.82285z" fill="#333"/></svg>

<?xml version="1.0" encoding="UTF-8" standalone="no"?>
<!-- Created with Inkscape (http://www.inkscape.org/) -->

<svg
   xmlns:dc="http://purl.org/dc/elements/1.1/"
   xmlns:cc="http://creativecommons.org/ns#"
   xmlns:rdf="http://www.w3.org/1999/02/22-rdf-syntax-ns#"
   xmlns:svg="http://www.w3.org/2000/svg"
   xmlns="http://www.w3.org/2000/svg"
   xmlns:xlink="http://www.w3.org/1999/xlink"
   xmlns:sodipodi="http://sodipodi.sourceforge.net/DTD/sodipodi-0.dtd"
   xmlns:inkscape="http://www.inkscape.org/namespaces/inkscape"
   version="1.1"
   id="svg2"
   width="128"
   height="128"
   viewBox="0 0 128 128"
   sodipodi:docname="deepin-launcher.svg"
   inkscape:version="0.92.2pre0 (973e216, 2017-07-25)">
  <metadata
     id="metadata8">
    <rdf:RDF>
      <cc:Work
         rdf:about="">
        <dc:format>image/svg+xml</dc:format>
        <dc:type
           rdf:resource="http://purl.org/dc/dcmitype/StillImage" />
        <dc:title />
      </cc:Work>
    </rdf:RDF>
  </metadata>
  <defs
     id="defs6">
    <linearGradient
       inkscape:collect="always"
       id="linearGradient1078">
      <stop
         style="stop-color:#cccdd1;stop-opacity:1;"
         offset="0"
         id="stop1074" />
      <stop
         style="stop-color:#f7f9f9;stop-opacity:1"
         offset="1"
         id="stop1076" />
    </linearGradient>
    <linearGradient
       id="linearGradient821"
       inkscape:collect="always">
      <stop
         id="stop817"
         offset="0"
         style="stop-color:#cde2e9;stop-opacity:1" />
      <stop
         id="stop819"
         offset="1"
         style="stop-color:#797979;stop-opacity:1" />
    </linearGradient>
    <linearGradient
       gradientUnits="userSpaceOnUse"
       y2="121.01225"
       x2="68.286613"
       y1="10.51384"
       x1="69.054108"
       id="linearGradient823"
       xlink:href="#linearGradient821"
       inkscape:collect="always"
       gradientTransform="matrix(0.94601788,0,0,0.94601788,-0.8977099,-0.44925348)" />
    <linearGradient
       inkscape:collect="always"
       xlink:href="#linearGradient1078"
       id="linearGradient1080"
       x1="701.81012"
       y1="398.37137"
       x2="699.27539"
       y2="220.52734"
       gradientUnits="userSpaceOnUse"
       gradientTransform="matrix(0.66355071,0,0,0.66355071,-399.67109,-144.99254)" />
  </defs>
  <sodipodi:namedview
     pagecolor="#ffffff"
     bordercolor="#666666"
     borderopacity="1"
     objecttolerance="10"
     gridtolerance="10"
     guidetolerance="10"
     inkscape:pageopacity="0"
     inkscape:pageshadow="2"
     inkscape:window-width="1360"
     inkscape:window-height="740"
     id="namedview4"
     showgrid="false"
     inkscape:zoom="1.7875659"
     inkscape:cx="154.48591"
     inkscape:cy="79.061376"
     inkscape:window-x="0"
     inkscape:window-y="0"
     inkscape:window-maximized="1"
     inkscape:current-layer="svg2" />
  <path
     style="fill:#000000;stroke-width:1.33333337"
     d=""
     id="path849"
     inkscape:connector-curvature="0" />
  <path
     style="fill:#000000;stroke-width:1.33333337"
     d=""
     id="path847"
     inkscape:connector-curvature="0" />
  <circle
     id="path12-3"
     cx="64.333229"
     cy="64.22612"
     r="60.565502"
     style="fill:url(#linearGradient823);fill-opacity:1;stroke:#cccdd1;stroke-width:4.64485502;stroke-miterlimit:4;stroke-dasharray:none;stroke-opacity:1" />
  <path
     style="color:#000000;font-style:normal;font-variant:normal;font-weight:normal;font-stretch:normal;font-size:medium;line-height:normal;font-family:sans-serif;font-variant-ligatures:normal;font-variant-position:normal;font-variant-caps:normal;font-variant-numeric:normal;font-variant-alternates:normal;font-feature-settings:normal;text-indent:0;text-align:start;text-decoration:none;text-decoration-line:none;text-decoration-style:solid;text-decoration-color:#000000;letter-spacing:normal;word-spacing:normal;text-transform:none;writing-mode:lr-tb;direction:ltr;text-orientation:mixed;dominant-baseline:auto;baseline-shift:baseline;text-anchor:start;white-space:normal;shape-padding:0;clip-rule:nonzero;display:inline;overflow:visible;visibility:visible;opacity:1;isolation:auto;mix-blend-mode:normal;color-interpolation:sRGB;color-interpolation-filters:linearRGB;solid-color:#000000;solid-opacity:1;vector-effect:none;fill:url(#linearGradient1080);fill-opacity:1;fill-rule:nonzero;stroke:none;stroke-width:4.64485502;stroke-linecap:butt;stroke-linejoin:miter;stroke-miterlimit:4;stroke-dasharray:none;stroke-dashoffset:0;stroke-opacity:1;color-rendering:auto;image-rendering:auto;shape-rendering:auto;text-rendering:auto;enable-background:accumulate"
     d="m 64.333592,1.3385313 c -34.704539,0 -62.8882778,28.1824517 -62.8882778,62.8869837 0,34.704538 28.1837388,62.888275 62.8882778,62.888275 34.704538,0 62.886978,-28.183737 62.886978,-62.888275 0,-34.704532 -28.18244,-62.8869837 -62.886978,-62.8869837 z m 0,4.644855 c 32.194272,0 58.242128,26.0478627 58.242128,58.2421287 0,32.194272 -26.047856,58.243425 -58.242128,58.243425 -32.194267,0 -58.2434228,-26.049153 -58.2434228,-58.243425 0,-32.194266 26.0491558,-58.2421287 58.2434228,-58.2421287 z"
     id="circle1062"
     inkscape:connector-curvature="0" />
  <path
     inkscape:connector-curvature="0"
     style="fill:#333333;fill-opacity:1;stroke:none;stroke-width:0.58165884px;stroke-linecap:butt;stroke-linejoin:miter;stroke-opacity:1"
     d="M 99.089653,26.738525 C 74.805097,28.109118 61.068181,39.601174 49.852002,54.349143 38.865408,53.57968 27.630429,58.270328 18.790058,68.845173 27.199536,67.074767 34.922576,67.08852 41.798527,69.305274 l -1.150817,8.397703 c 3.091738,2.71814 6.181585,5.446883 8.973676,9.663256 l 8.743059,-3.335448 C 59.606141,92.54763 58.614053,100.50558 57.444243,108.41955 64.241945,99.703834 71.314236,93.178279 72.411733,76.802082 90.460368,62.20353 99.109538,43.212462 99.089653,26.738525 Z M 75.851699,43.305578 a 7.822944,7.822944 0 0 1 7.822857,7.822857 7.822944,7.822944 0 0 1 -7.822857,7.822857 7.822944,7.822944 0 0 1 -7.822858,-7.822857 7.822944,7.822944 0 0 1 7.822858,-7.822857 z M 38.347202,82.419863 c -13.768272,3.685675 -4.331432,10.567785 -12.19439,17.486111 7.723848,-1.86308 18.022443,-2.30135 18.176839,-10.583455 0,0 -6.748465,3.090536 -8.513578,0.920194 -1.765108,-2.170324 2.531129,-7.82285 2.531129,-7.82285 z"
     id="path934-6" />
</svg>
